assets/images/script/l-5-e1.svg

<svg fill="none" height="154" viewBox="0 0 313 154" width="313" xmlns="http://www.w3.org/2000/svg"><path d="m103.698 128.756c-4.4853.561 3.995 8.855 4.749 9.499 15.316 13.078 40.792 14.611 59.547 10.503 13.015-2.851 32.458-12.097 34.158-27.399 2.428-21.8578-33.688-29.2899-48.588-31.3266-29.308-4.0061-59.564-7.2707-89.064-7.2707-13.7403 1.7904-27 3-40.8986 5.3991-6.112 1.1813-14.04638 4.1099-20.45791 4.1099-1.14598 0 1.70279-1.5449 2.64858-2.192 11.70793-6.317 11.70793-6.1544 23.01523-12.0741 35.8014-18.7429 57.9807-30.6655 88.9557-45.1448 19.491-9.1114 143.21-60.1787 137.36-4.9319-2.301 21.7327-15.793 41.4455-22.102 62.1045-4.425 14.4946-11.986 38.8086-10.685 54.4186 1.664 5.811 12.751 5.812 22.664 5.311 24.124-1.22 41.807-3.5 65.104-3.718" stroke="#000" stroke-linecap="round" stroke-width="5"/></svg>

<svg width="313" height="154" viewBox="0 0 313 154" fill="none" xmlns="http://www.w3.org/2000/svg">
<path d="M103.698 128.756C99.2127 129.317 107.693 137.611 108.447 138.255C123.763 151.333 149.239 152.866 167.994 148.758C181.009 145.907 200.452 136.661 202.152 121.359C204.58 99.5012 168.464 92.0691 153.564 90.0324C124.256 86.0263 94 82.7617 64.5 82.7617C50.7597 84.5521 37.5 85.7617 23.6014 88.1608C17.4894 89.3421 9.55502 92.2707 3.14349 92.2707C1.99751 92.2707 4.84628 90.7258 5.79207 90.0787C17.5 83.7617 17.5 83.9243 28.8073 78.0046C64.6087 59.2617 86.788 47.3391 117.763 32.8598C137.254 23.7484 260.973 -27.3189 255.123 27.9279C252.822 49.6606 239.33 69.3734 233.021 90.0324C228.596 104.527 221.035 128.841 222.336 144.451C224 150.262 235.087 150.263 245 149.762C269.124 148.542 286.807 146.262 310.104 146.044" stroke="black" stroke-width="5" stroke-linecap="round"/>
</svg>
